tools/download-figma-icons/icons/outlined-large/calculator.svg

<svg width="64" height="64" viewBox="0 0 64 64" fill="none" xmlns="http://www.w3.org/2000/svg">
<path fill-rule="evenodd" clip-rule="evenodd" d="M13 0H51C52.657 0 54 1.343 54 3V60.956C54 62.612 52.657 63.956 51 63.956H13C11.344 63.956 10 62.612 10 60.956V3C10 1.343 11.344 0 13 0ZM51 60.956H13V3H51V60.956ZM48.0004 24.9557H16.0004V5.9997H48.0004V24.9557ZM45.0004 21.9557H19.0004V8.9997H45.0004V21.9557ZM19.0004 54.9557H25.0004V51.9557H19.0004V54.9557ZM25.0004 33.9557H19.0004V30.9557H25.0004V33.9557ZM19.0004 40.9557H25.0004V37.9557H19.0004V40.9557ZM25.0004 47.9557H19.0004V44.9557H25.0004V47.9557ZM39.0004 54.9557H45.0004V51.9557H39.0004V54.9557ZM45.0004 33.9557H39.0004V30.9557H45.0004V33.9557ZM39.0004 40.9557H45.0004V37.9557H39.0004V40.9557ZM45.0004 47.9557H39.0004V44.9557H45.0004V47.9557ZM29.0004 54.9557H35.0004V51.9557H29.0004V54.9557ZM35.0004 33.9557H29.0004V30.9557H35.0004V33.9557ZM29.0004 40.9557H35.0004V37.9557H29.0004V40.9557ZM35.0004 47.9557H29.0004V44.9557H35.0004V47.9557Z" fill="black"/>
</svg>

<svg xmlns="http://www.w3.org/2000/svg" width="64" height="64" fill="none" viewBox="0 0 64 64"><path fill="currentColor" fill-rule="evenodd" d="M13 0h38a3 3 0 0 1 3 3v57.956a3 3 0 0 1-3 3H13c-1.656 0-3-1.344-3-3V3a3 3 0 0 1 3-3m38 60.956H13V3h38zm-3-36H16V6h32zm-3-3H19V9h26zm-26 33h6v-3h-6zm6-21h-6v-3h6zm-6 7h6v-3h-6zm6 7h-6v-3h6zm14 7h6v-3h-6zm6-21h-6v-3h6zm-6 7h6v-3h-6zm6 7h-6v-3h6zm-16 7h6v-3h-6zm6-21h-6v-3h6zm-6 7h6v-3h-6zm6 7h-6v-3h6z" clip-rule="evenodd"/></svg>
